X:112
T:Cello Suite No.1 - Prelude (BWV 1007)
C:Bach, J.S.
M:4/4
L:1/16
Q:1/4=76
K:C
|:CGEG CGEG|CGEG CGEG|CDEG CDEG|CDEG CDEG|
CGEG CGEG|CFGB CFGB|CEAC CEAC|C8:|

